X:1
T:Exibição automática de bracinho
T:(em acordes conhecidos)
%%gchordfont * 45
M:2/4
L:1/8
K:C
%
V:1 %dyn=up
+p+ CDEC|GFED |ECEA   |G4   |FEDC |DFAc |GFED     |C4  |]
s: "CM7"|"Am7"|"Dm7/9"|"F/G"|"F/A"|"Dm7"|"G7/9/13"|"CM7"|

%%postscript 0 -160 M 300 0 RL stroke
%%postscript 0 -160 M CM7 60 0 RM F_A

%%postscript 0 -40 M count 5 string cvs show



